X: 11548
T: Edenderry, The
R: reel
M: 4/4
K: Gmajor
|:B2 AG BGGA|B2 AG Bded|B2 AG BGGB|AGBG AGEG:|
gfga gede|gabg agab|gfga gedB|A2 BG AGEG|
gfga gede|gabg a2 ga|bgaf gedB|A2 BG AGEG||

